!!!!SEGMENT: pl-kk--kk-i-382--016-003_anonim--nro-5-agnus.krn
!!!cenid: 18xx:1483
!!!COM: Anonim
!!!COM-rismid: pe30004985
!!!CDT:
!!!CNT:
!!!OTL: Nro 5 Agnus
!!!PDT:
!!!AGN: Sacred
!!!SMS-siglum: PL-Kk
!!!SMS-shelfmark: Kk.I.382
!!!SMS-shelfwork: 016-003
!!!SMS-variant:
!!!SMS-altvar:
!!!NIFC-rismid: 1001139099
!!!URL-scan: http://repozytorium.nifc.pl/skany/pl-kk-nut--i-382
!!!ONB-nifc: UWAGA: obsada: S (T 1), A (B 1), T 2, B 2; S (T 1): skan 0016; A (B 1): skan 0161; T 2: skan 0088; B 2: skan 0231
**kern	**text	**kern	**text	**kern	**text	**kern	**text
*part4	*part4	*part3	*part3	*part2	*part2	*part1	*part1
*staff4	*staff4	*staff3	*staff3	*staff2	*staff2	*staff1	*staff1
*I"Basso II	*	*I"Tenore II	*	*I"Alto vel Basso I	*	*I"Soprano vel Tenore I.	*
*I'B. II	*	*I'T. II	*	*I'A. vel T. I	*	*I'S. vel T. I	*
*clefF4	*	*clefC4	*	*clefC3	*	*clefC1	*
*k[]	*	*k[]	*	*k[]	*	*k[]	*
*M4/4	*	*M4/4	*	*M4/4	*	*M4/4	*
*met(c)	*	*met(c)	*	*met(c)	*	*met(c)	*
=1	=1	=1	=1	=1	=1	=1	=1
!LO:SIC:o:s:v=all\right	!	!LO:SIC:o:s:v=all\right	!	!LO:SIC:o:s:v=all\right	!	!LO:SIC:o:s:v=all\right	!
4C/	A-	4e\	A-	4g\	A-	4g\	A-
4C/	-gnus	(8c\L	-gnus	8e\L	-gnus	4g\	-gnus
.	.	8d\J)	.	8f\J	.	.	.
4G\	De-	(8e\L	De-	8g\L	De-	4g\	De-
.	.	8d\J)	.	8f\J	.	.	.
8GG/	-i	8B\	-i	8d\	-i	8g\	-i
8GG/	qui	8d\	qui	8B/	qui	8g\	qui
=2	=2	=2	=2	=2	=2	=2	=2
*	*	*	*	*	*	*2\right	*
!	!	!	!	!	!	!LO:TX:t=P:problem:2\right:global	!
2C/	tol-	(4.e\	tol-	(4.c\	tol-	2g\	tol-
.	.	16d\LL	.	16d\LL	.	.	.
.	.	16c\JJ)	.	16e\JJ)	.	.	.
4GG/	-lis	4B\	-lis	4d\	-lis	4g\	-lis
8r	.	8r	.	8r	.	8r	.
8G\	qui	8d\	qui	8f\	pec-	8g\	qui
=3	=3	=3	=3	=3	=3	=3	=3
(8E/L	tol-	(8c\L	tol-	(8e\L	-ca-	(8g\L	tol-
8C/J)	.	8e\J)	.	8g\J)	.	8cc\J)	.
8C/	-lis	8e\	-lis	8g\	-ta	8cc\	-lis
8C/	pe-	8e\	pec-	8g\	pe-	8cc\	pec-
!	!	!	!	!	!	!LO:LB:g=original	!
4BB/	-ca-	(8f\L	-ca-	(8a\L	-ca-	(8dd\L	-ca-
.	.	8e\J)	.	8g\J)	.	8cc\J)	.
4C/	-ta	(8d\L	-ta	(8f\L	-ta	(8b\L	-ta
.	.	8c\J)	.	8e\J)	.	8cc\J)	.
!	!	!LO:LB:g=original	!	!	!	!	!
=4	=4	=4	=4	=4	=4	=4	=4
4G\	mun-	4c\	mun-	4e\	mun-	4g\	mun-
4GG/	-di	4B\	-di	4d\	-di	4g\	-di
2r	.	2r	.	2r	.	2r	.
!	!	!	!	!LO:LB:g=original	!	!	!
=5	=5	=5	=5	=5	=5	=5	=5
!LO:TX:a:t=1.	!	!	!	!	!	!	!
1r	.	(8B\L	mi-	(8d\L	mi-	4g\	mi-
.	.	8c\J)	.	8e\J)	.	.	.
.	.	(8c\L	-se-	(8e\L	-se-	4g\	-se-
.	.	8d\J)	.	8f\J)	.	.	.
.	.	(8d\L	-re-	(8f\L	-re-	4g\	-re-
.	.	8c\	.	8e\	.	.	.
.	.	8B\)	.	8d\	.	4g\	-re
.	.	8d\J	.	8f\J)	.	.	.
!LO:LB:g=original	!	!	!	!	!	!	!
=6	=6	=6	=6	=6	=6	=6	=6
(8c\L	mi-	4c\	-re	4e\	-re	(8ee\L	mi-
8B\J)	.	.	.	.	.	8dd\J)	.
(8A\L	-se-	4r	.	4r	.	(8cc\L	-se-
8G\J)	.	.	.	.	.	8b\J)	.
(8F\L	-re-	2r	.	2r	.	((8a\L	-re-
8E\	.	.	.	.	.	8g\)	.
8D\	.	.	.	.	.	8f\	.
8C\J)	.	.	.	.	.	8e\J)	.
=7	=7	=7	=7	=7	=7	=7	=7
4GG/	-re	4r	.	4r	.	4d/	-re
*2\right	*	*2\right	*	*2\right	*	*	*
!	!	!LO:TX:t=P:problem:2\right:global	!	!LO:TX:t=P:problem:2\right:global	!	!	!
2G\	mi-	2B\	mi-	2g\	mi-	2dd\	mi-
4G\	-se-	4B\	-se-	4g\	-se-	4dd\	-se-
!	!	!	!	!	!	!LO:LB:g=original	!
=8	=8	=8	=8	=8	=8	=8	=8
(2A\	-re-	2c\	-re-	2f#X\	-re-	2dd\	-re-
8B\L	.	(8d\L	-re	2fn\	-re	2dd\	-re
8G\J)	.	8B\	.	.	.	.	.
(8A\L	-re	8c\)	.	.	.	.	.
8B\J)	.	8d\J	.	.	.	.	.
=9	=9	=9	=9	=9	=9	=9	=9
4c\	no-	(4c\	mi-	(4e\	mi-	4cc\	mi-
4G\	.	4d\)	.	4f\)	.	4b\	-se-
4E\	.	2c\	-se-	(4g\	-se-	4cc\	-re-
4C\	.	.	.	4e\)	.	4g\	-re
=10	=10	=10	=10	=10	=10	=10	=10
4E\	.	4e\	-re-	4g\	-re-	(4g\	no-
4A\	.	(8f\L	-re	(8a\L	-re-	4f\	.
.	.	8d\J)	.	8f\J)	.	.	.
!	!	!LO:LB:g=original	!	!	!	!	!
4G\	.	(4c\	no-	(4e\	-no-	2g\)	.
4GG/	.	8d\L	.	8f\L	.	.	.
.	.	8B\J)	.	8d\J)	.	.	.
=11	=11	=11	=11	=11	=11	=11	=11
2.C/	-bis	2c\	-bis	2e\	-bis	2.g\	-bis
.	.	2r	.	2r	.	.	.
4r	.	.	.	.	.	4r	.
!	!	!	!	!LO:LB:g=original	!	!	!
=12	=12	=12	=12	=12	=12	=12	=12
!LO:TX:a:t=1.	!	!	!	!	!	!	!
1r	.	(8B\L	mi-	(8d\L	mi-	4g\	mi-
.	.	8c\J)	.	8e\J)	.	.	.
.	.	(8c\L	-se-	(8e\L	-se-	4g\	-se-
.	.	8d\J)	.	8f\J)	.	.	.
.	.	(8d\L	-re-	(8f\L	-re-	4g\	-re-
.	.	8c\	.	8e\	.	.	.
.	.	8B\	.	8d\	.	4g\	-re
.	.	8d\J)	.	8f\J)	.	.	.
!LO:LB:g=original	!	!	!	!	!	!	!
=13	=13	=13	=13	=13	=13	=13	=13
(8C/L	mi-	4c\	-re	4e\	-re	(8e/L	mi-
8D/J)	.	.	.	.	.	8f/J)	.
(8E\L	-se-	4r	.	4r	.	(8g\L	-se-
8F\J)	.	.	.	.	.	8a\J)	.
(8G\L	-re-	2r	.	2r	.	(8b\L	-re-
8A\	.	.	.	.	.	8cc\	.
8B\	.	.	.	.	.	8dd\	.
8c\J)	.	.	.	.	.	8ee\J)	.
!	!	!	!	!	!	!LO:LB:g=original	!
=14	=14	=14	=14	=14	=14	=14	=14
4G\	-re	4r	.	4r	.	4dd\	-re
2G\	mi-	2B\	mi-	2g\	mi-	2dd\	mi-
4G\	-se-	4B\	-se-	4g\	-se-	4dd\	-se-
=15	=15	=15	=15	=15	=15	=15	=15
2A\	-re-	2c\	-re-	2f#X\	-re-	2dd\	-re-
8B\L	.	8d\L	-re	2fn\	-re	2dd\	-re
8G\J	.	8B\	.	.	.	.	.
8A\L	-re	8c\	.	.	.	.	.
8B\J	.	8d\J	.	.	.	.	.
=16	=16	=16	=16	=16	=16	=16	=16
4c\	no-	(4c\	mi-	(4e\	mi-	4cc\	mi-
4G\	.	4d\)	.	4f\)	.	4b\	-se-
4E\	.	2c\	-se-	(4g\	-se-	4cc\	-re-
4C\	.	.	.	4e\)	.	4g\	-re
!	!	!LO:LB:g=original	!	!	!	!	!
=17	=17	=17	=17	=17	=17	=17	=17
4E\	.	4e\	-re-	4g\	-re-	(4g\	no-
4A\	.	(8f\L	-re	(8a\L	-re	4f\	.
.	.	8d\J)	.	8f\J)	.	.	.
4G\	.	(4c\	no-	(4e\	no-	2g\)	.
4GG/	.	8d\L	.	8f\L	.	.	.
.	.	8B\J)	.	8d\J)	.	.	.
=18	=18	=18	=18	=18	=18	=18	=18
1C/	-bis.	1c\	-bis	1e\	-bis	1g\	-bis
!LO:LB:g=original	!	!	!	!LO:LB:g=original	!	!	!
=19|!	=19|!	=19|!	=19|!	=19|!	=19|!	=19|!	=19|!
*M4/4	*	*M4/4	*	*M4/4	*	*M4/4	*
*met(c)	*	*met(c)	*	*met(c)	*	*met(c)	*
4C/	A-	(2c\	A-	(2e\	A-	2.g\	A-
4E\	.	.	.	.	.	.	.
8G\L	.	8e\L	.	8c\L	.	.	.
8E\J	.	8c\J)	.	8e\J)	.	.	.
4C/	-gnus	4e\	-gnus	4g\	-gnus	4g\	-gnus
=20	=20	=20	=20	=20	=20	=20	=20
4C/	De-	8e\L	De-	(8g\L	De-	2g\	De-
.	.	8d\	.	8f\	.	.	.
4GG/	.	8c\	.	8e\	.	.	.
.	.	8B\J	.	8d\J)	.	.	.
4C/	-i	4c\	-i	4e\	-i	4g\	-i
4C/	qui	4c\	qui	4e\	qui	4g\	qui
!	!	!	!	!	!	!LO:LB:g=original	!
=21	=21	=21	=21	=21	=21	=21	=21
2GG/	tol-	(8B\L	tol-	(8d\L	tol-	2g\	tol-
.	.	8c\	.	8e\	.	.	.
.	.	8B\	.	8d\)	.	.	.
.	.	8c\J)	.	8e\J	.	.	.
4G\	-lis	(8e\L	-lis	(8g\L	-lis	4g\	-lis
.	.	8d\J)	.	8f\J)	.	.	.
4G\	pe-	(8c\L	pec-	(8e\L	pec-	4g\	pec-
.	.	8B\J)	.	8d\J)	.	.	.
!	!	!LO:LB:g=original	!	!	!	!	!
=22	=22	=22	=22	=22	=22	=22	=22
(2C/	-ca-	8c\L	-ca-	(8e\L	-ca-	2g\	-ca-
.	.	8d\	.	8f\	.	.	.
.	.	8c\	.	8e\	.	.	.
.	.	8d\J	.	8f\J)	.	.	.
4BB/)	.	8f\L	-ta	(8a\L	-ta	2g\	-ta
.	.	8e\	.	8g\	.	.	.
4C/	-ta	8d\	.	8f\	.	.	.
.	.	8c\J	.	8e\J)	.	.	.
!	!	!	!	!LO:LB:g=original	!	!	!
=23	=23	=23	=23	=23	=23	=23	=23
(2G\	mun-	(2B\	mun-	(2d\	mun-	(2f\	mun-
2F#X\)	.	2c\)	.	2e\)	.	2a\)	.
=24	=24	=24	=24	=24	=24	=24	=24
1G\	-di.	1B\	-di.	1d\	-di.	1g\	-di.
!	!	!	!	!	!	!LO:TX:b:i:t=Seque Dona V&colon;S&colon;	!
!LO:LB:g=original	!	!LO:LB:g=original	!	!	!	!LO:PB:g=original	!
=25|!	=25|!	=25|!	=25|!	=25|!	=25|!	=25|!	=25|!
*M4/4	*	*M4/4	*	*M4/4	*	*M4/4	*
*met(c)	*	*met(c)	*	*met(c)	*	*met(c)	*
(4C/	Do-	4c\	Do-	(4c\	Do-	(4cc\	Do-
4E\)	.	4e\	.	4e\)	.	4ee\)	.
4G\	-na	4g\	-na	4g\	-na	4gg\	-na
4r	.	8r	.	8r	.	4r	.
.	.	8G/	do-	8e\	do-	.	.
=26	=26	=26	=26	=26	=26	=26	=26
4r	.	(8A/L	-na	(8f\L	-na	4r	.
.	.	8G/J)	.	8e\J)	.	.	.
8r	.	8A\	no-	8f\	no-	8r	.
8GG/	da	8B\	-bis	8d\	-bis	8g\	da
(8C/L	pa-	(8c\L	pa-	(8e\L	pa-	4g\	pa-
8BB/J)	.	8d\J)	.	8f\J)	.	.	.
4C/	-cem	8e\	-cem	8g\	-cem	8g\	-cem
.	.	8r	.	8r	.	8r	.
=27	=27	=27	=27	=27	=27	=27	=27
(4C/	Do-	4c\	do-	(4c\	do-	(4cc\	do-
4E\)	.	4e\	.	4e\)	.	4ee\)	.
4G\	-na	4g\	-na	4g\	-na	4gg\	-na
8r	.	8r	.	8r	.	8r	.
8G\	no-	8c\	da	8g\	da	8ee\	da
!	!	!	!	!LO:LB:g=original	!	!	!
=28	=28	=28	=28	=28	=28	=28	=28
(8F\L	-bis	2B\	pa-	2g\	pa-	2dd\	pa-
8D\J)	.	.	.	.	.	.	.
(8BB/L	pa-	.	.	.	.	.	.
8GG/J)	.	.	.	.	.	.	.
4C/	-cem	4c\	-cem	4g\	-cem	4ee\	-cem
8G\	do-	8B\	do-	8g\	do-	8dd\	do-
8G\	-na	8B\	-na	8g\	-na	8dd\	-na
!LO:LB:g=original	!	!LO:LB:g=original	!	!	!	!LO:LB:g=original	!
=29	=29	=29	=29	=29	=29	=29	=29
8C/	no-	8c\	no-	8g\	no-	8ee\	no-
8D/	-bis	8B\	-bis	8g\	-bis	8dd\	-bis
(8E\L	pa-	8c\L	pa-	4g\	pa-	8ee\L	pa-
8F\J)	.	16d\L	.	.	.	16ff\L	.
.	.	16c\JJ	.	.	.	16ee\JJ	.
4G\	-cem	4B\	-cem	4g\	-cem	4dd\	-cem
4r	.	4r	.	4r	.	4r	.
=30	=30	=30	=30	=30	=30	=30	=30
!LO:TX:a:t=1.	!	!	!	!	!	!LO:TX:b:t=1.	!
1r	.	2B\	Do-	4g\	do-	1r	.
.	.	.	.	4g\	-na	.	.
.	.	(8B\L	-na	(8d\L	no-	.	.
.	.	8d\J)	.	8f\J)	.	.	.
.	.	8c\	no-	(8e\L	-bis	.	.
.	.	8e\	-bis	8g\J)	.	.	.
=31	=31	=31	=31	=31	=31	=31	=31
8r	.	1d\	pa-	1f\	pa-	8r	.
8G\	da	.	.	.	.	8b\	do-
8A\L	pa-	.	.	.	.	(8cc\L	-na
8G\J	.	.	.	.	.	8b\J)	.
8A\L	.	.	.	.	.	8cc\	no-
8G\	.	.	.	.	.	8b\	-bis
8A\	.	.	.	.	.	(8cc\L	pa-
8B\J	.	.	.	.	.	8dd\J)	.
!	!	!	!	!LO:LB:g=original	!	!	!
=32	=32	=32	=32	=32	=32	=32	=32
4c\	-cem	4c\	-cem	4e\	-cem	4ee\	-cem
4r	.	4c\	do-	4e\	da	4r	.
2r	.	(8B\L	-na	(8d\L	no-	2r	.
.	.	8d\J)	.	8f\J)	.	.	.
.	.	8c\	no-	(8e\L	-bis	.	.
.	.	8e\	-bis	8g\J)	.	.	.
!	!	!	!	!	!	!LO:LB:g=original	!
=33	=33	=33	=33	=33	=33	=33	=33
8r	.	2d\	pa-	2f\	pa-	8r	.
8G\	da	.	.	.	.	8b\	da
(8A\L	pa-	.	.	.	.	(8cc\L	pa-
8B\J)	.	.	.	.	.	8dd\J)	.
4c\	-cem	4c\	-cem	4e\	-cem	4ee\	-cem
4r	.	(8e\L	do-	(8g\L	do-	4r	.
.	.	8c\J)	.	8e\J)	.	.	.
!LO:LB:g=original	!	!LO:LB:g=original	!	!	!	!	!
=34	=34	=34	=34	=34	=34	=34	=34
4r	.	4B\	-na	4d\	-na	4r	.
8B\L	do-	4r	.	4r	.	(8dd\L	do-
8A\J	.	.	.	.	.	8cc\J)	.
4G\	-na	8r	.	8r	.	4b\	-na
.	.	8B\	da	8d\	da	.	.
4r	.	(8d\L	pa-	(8f\L	pa-	4r	.
.	.	8B\J)	.	8d\J)	.	.	.
=35	=35	=35	=35	=35	=35	=35	=35
8r	.	4c\	-cem	4e\	-cem	8r	.
8c\	da	.	.	.	.	8ee\	da
(8e\L	pa-	4r	.	4r	.	(8gg\L	pa-
8c\J)	.	.	.	.	.	8ee\J)	.
4G\	-cem	8r	.	8r	.	8dd\	-cem
.	.	8B\	da	8d\	da	8r	.
4r	.	(8d\L	pa-	(8f\L	pa-	4r	.
.	.	8B\J)	.	8d\J)	.	.	.
!	!	!	!	!LO:LB:g=original	!	!	!
=36	=36	=36	=36	=36	=36	=36	=36
8r	.	4c\	-cem	4e\	-cem	8r	.
8c\	da	.	.	.	.	8ee\	da
(8B\L	pa-	4r	.	4r	.	(8dd\L	pa-
8A\J)	.	.	.	.	.	8cc\J)	.
4G\	-cem	4r	.	4r	.	4b\	-cem
4r	.	8r	.	8r	.	4r	.
.	.	8e\	do-	8g\	do-	.	.
!	!	!	!	!	!	!LO:LB:g=original	!
=37	=37	=37	=37	=37	=37	=37	=37
4A\	do-	(4e\	-na	(4g\	-na	2r	.
4d\	-na	4d\)	.	4f\)	.	.	.
4G\	no-	4d\	no-	4f\	no-	4r	.
4c\	-bis	4c\	-bis	4e\	-bis	4g\	da
=38	=38	=38	=38	=38	=38	=38	=38
(4F\	pa-	8d\	no-	8f\	no-	(4a\	pa-
.	.	8c\	-bis	8e\	-bis	.	.
4G\)	.	(8c\L	pa-	(8e\L	pa-	4b\)	.
.	.	8B\J)	.	8d\J)	.	.	.
!LO:TX:t=P:problem:ołówkowa korekta wysokości - a na c	!	!	!	!	!	!	!
4A\	-cem	4c\	-cem	4e\	-cem	4cc\	-cem
4r	.	8r	.	8r	.	4r	.
.	.	8e\	do-	8g\	do-	.	.
!LO:LB:g=original	!	!LO:LB:g=original	!	!	!	!	!
=39	=39	=39	=39	=39	=39	=39	=39
4A\	do-	(4e\	-na	(4g\	-na	2r	.
4d\	-na	4d\)	.	4f\)	.	.	.
4G\	no-	4d\	no-	4f\	no-	4r	.
4c\	-bis	4c\	-bis	4e\	-bis	8r	.
.	.	.	.	.	.	8g\	da
!	!	!	!	!LO:LB:g=original	!	!	!
=40	=40	=40	=40	=40	=40	=40	=40
(4F\	pa-	8d\	no-	8f\	no-	(4a\	pa-
.	.	8c\	-bis	8e\	-bis	.	.
4G\)	.	(8c\L	pa-	(8e\L	pa-	4g\)	.
.	.	8B\J)	.	8d\J)	.	.	.
4C/	-cem	4c\	-cem	4e\	-cem	4g\	-cem
8r	.	8r	.	8r	.	8r	.
8C/	da	8c\	da	8e\	da	8g\	da
=41	=41	=41	=41	=41	=41	=41	=41
(4C/	pa-	(4c\	pa-	(4e\	pa-	2g\	pa-
8BB/L	.	8d\L	.	8f\L	.	.	.
8C/J)	.	8c\J)	.	8e\J)	.	.	.
4BB;/	-cem	4d;\	-cem	4f;\	-cem	4g;\	-cem
8r	.	8r	.	8r	.	8r	.
8G\	do-	8d\	do-	8f\	do-	(8b\	do-
!	!	!	!	!	!	!LO:LB:g=original	!
=42	=42	=42	=42	=42	=42	=42	=42
(8C/L	-na	4c\	-na	(2e\	-na	8g\)	.
8D/J)	.	.	.	.	.	8g\	-na
8E\	no-	8c\	no-	.	.	8g\	no-
8F\	-bis	8c\	-bis	.	.	8a\	-bis
(4G\	pa-	2B\	pa-	2d\)	pa-	2g\	pa-
4GG/)	.	.	.	.	.	.	.
=43	=43	=43	=43	=43	=43	=43	=43
1C/	-cem.	1c\	-cem.	1e\	-cem.	1g\	-cem.
==	==	==	==	==	==	==	==
*-	*-	*-	*-	*-	*-	*-	*-
!!!system-decoration: [(s1,s2,s3,s4)]
!!!EED: Leszek Kubiak
!!!EST: 2021-02-04
!!!ENC: Mateusz Solarz
!!!END: 2021-01-28
